X: 1
T: D'r Maia  (Gm)
O: Alsace
M: 2/4
L: 1/8
Q: 1/4=80-92
Z: 2006 John Chambers <jc:trillian.mit.edu>
S: PDF from Steve Gruverman
K: Gm
D2 \
| "Gm"G3 G | "F"A3 A | "Eb"B2 AG | "D7"Ac BA | "Gm"G3 G | "F"A3 A | "Eb"B2 AG | "D7"A4 |
| "D7"A>B cA | "Eb"B3 A | "Eb"GG BA | "D7"^F3 D | "D7"^F>G AF | "Gm"G4- | G2 :|


%%sep 5 1 500

